X: 16604
T: Handsome Ploughboy, The
R: hornpipe
M: 4/4
K: Gmajor
D2|:G2 G2 GB AG|F2 A2 Ac BA|G2 G2 GB dg|fe dc BA GF|
G2 G2 GB AG|F2 A2 Ac BA|GB dg fe dc|B2 G2 G2 ((3def)|
gd Bd gd Bd|ge ce ge ce|af df af df|gf ed cB AG|
Bd Gd Bd Gd|ce Ae ce Ae|dg fe dc BA|G2 G2 G2 z2:|

